X:54
T:Jigs simple chords 176
M:3/4
L:1/8
K:G
d/c/[B2G,2B,2D2]B B^A | B[g2G,2B,2D2]d d2 | B[c2A,2C2E2]c c2 | d2<[e2A,2C2E2] e2 | c[A2D,2F,2A,2]A A^G |
A[f2D,2F,2A,2C2]e e2 | c[B2G,2B,2D2]B B2 | c[d5G,5B,5D5] | c[B2G,2B,2D2]B B^A |
B[g2G,2B,2D2]d d2 | B[^c2A,2C2E2]a a2 | a2<[a2A,2^C2E2G2] a2 | g[f2D,2F,2A,2]a a^g |
a[e2A,2^C2E2G2]a a^g | a[d2D,2F,2A,2C2]^c d2 | ^c2<[d2D,2F,2A,2=C2] d2 | d/c/[B2G,2B,2D2]B B^A |
B[g2G,2B,2D2]d d2 | B[c2A,2C2E2]c c2 | d2<[e2A,2C2E2] e2 | c[A2D,2F,2A,2]A A^G |
A[f2D,2F,2A,2C2]e e2 | c[B2G,2B,2D2]B B2 | c[d5G,5B,5D5] | c[B2G,2B,2D2]B B^A |
B[g2G,2B,2D2]d d2 | B[^c2A,2C2E2]a a2 | a2<[a2A,2^C2E2G2] a2 | g[f2D,2F,2A,2]a a^g |
a[e2A,2^C2E2G2]a a^g | a[d2D,2F,2A,2C2]^c d2 | ^c2<[d2D,2F,2A,2=C2] d2 | c[BG,B,D] ^AB e2 |
d2<[B2G,2B,2D2] G3 |[E3C,3E,3G,3] A3 |[G3G,3B,3D3] G2 | G[AD,F,A,C] Bd f2 |
e2<[d2G,2B,2D2] g3 |[f3D,3F,3A,3] e3 |[d3D,3F,3A,3C3] d2 | d[e2C,2E,2G,2]e e^d |
e2<[f2B,2^D2F2A2] f3 |[g2E,2G,2B,2]g ag | a2<[b2B,2^D2F2] b2 | b[a2C,2E,2G,2]g e2 |
c2<[B2G,2B,2D2] G3 |[A3D,3F,3A,3C3] F3 |[G3G,3B,3D3] G2 | c[BG,B,D] ^AB e2 |
d2<[B2G,2B,2D2] G3 |[E3C,3E,3G,3] A3 |[G3G,3B,3D3] G2 | G[AD,F,A,C] Bd f2 |
e2<[d2G,2B,2D2] g3 |[f3D,3F,3A,3] e3 |[d3D,3F,3A,3C3] d2 | d[e2C,2E,2G,2]e e^d |
e2<[f2B,2^D2F2A2] f3 |[g2E,2G,2B,2]g ag | a2<[b2B,2^D2F2] b2 | b[a2C,2E,2G,2]g e2 |
c2<[B2G,2B,2D2] G3 |[A3D,3F,3A,3C3] F3 |[G3G,3B,3D3] G2 | G2<[E2C,2E,2G,2] =F3 |
[F3C,3E,3G,3] G3 |[e2C,2E,2G,2]e e2 | ^d2<[e2C,2E,2G,2] e2 | G2<[E2C,2E,2G,2] =F3 |
[F3C,3E,3G,3] G3 |[=f2G,2B,2D2]f f2 | e2<[=f2G,2B,2D2] f2 | e2<[d2G,2B,2D2] ^c3 |
[d2G,2B,2D2]G F2 | G2<[e2C,2E,2G,2] ^d3 |[e2C,2E,2G,2]G F2 | G2<[B2G,2B,2D2] d3 |
[c2D,2F,2A,2C2]d A2 | c[B2G,2B,2D2]c A2 | B[G2G,2B,2D2=F2]A F2 | G2<[E2C,2E,2G,2] =F3 |
[F3C,3E,3G,3] G3 |[e2C,2E,2G,2]e e2 | ^d2<[e2C,2E,2G,2] e2 | G2<[E2C,2E,2G,2] =F3 |
[F3C,3E,3G,3] G3 |[=f2G,2B,2D2]f f2 | e2<[=f2G,2B,2D2] f2 | e2<[d2G,2B,2D2] ^c3 |
[d2G,2B,2D2]G F2 | G2<[e2C,2E,2G,2] ^d3 |[e2C,2E,2G,2]G F2 | G2<[A2=F,2A,2C2] f3 |
[e2C,2E,2G,2]c d2 | B[c6C,6E,6G,6] |[c4C,4E,4G,4] |


